X:1
T:I Want to Play Piano in a Whorehouse
M:4/4
L:1/8
K:C
 G,2| EE E2 EF EE| D2 A,6| DD DD E- D2 B,| G,6- G, G,| AA AA D D2 D|\
 B,B, CC D4| DD DD B,2 A,A,| B,B, CC D2 G, G,| EE EE FF EE| D4 A,3 A,|\
 DD DD ED CD| E6 CB,| A,2 A,A, FA, A,A,|
M:3/4
 G, G, G,3/2 G,/2 CD|
M:4/4
 E D- D4 E2| FF EE GG EE| D2 C4||

